X: 41
T: Trollpolskan
O: Dalarna, Sweden
R: 3/4
S: http://www.folksweden.com/files/Trollpolskan.pdf (Tim Rued)
Z: 2021 John Chambers <jc:trillian.mit.edu>
M: 3/4
L: 1/8
K: Dm
(vA, |\
"Dm"D2) DE FG | "A7"A2 A^c de | "Bb"f2 fe d2 | "F"c2 cA FA || "Gm"B2 BA GB |
"Dm"A2 AG F2 | "A7"E2 ED  ^CE | "Dm"D2 D3 :: z | "Dm"a2 ag fa | "C"g2 ge c2 | "Bb"f2 fe df |
"A7"e2 e^c A2 || "Gm"d2 dc Bd | "F"c2 cA F2 | "A7"E2 ED ^CE | "Dm"D2 D3 :|
%%text Widely played in hambo, Bodapolska, and other polsdans rhythms.
